FlatUX/src/svg/Nintendo - Game Boy Advance-content.svg

<svg enable-background="new 0 0 256 256" viewBox="0 0 256 256" xmlns="http://www.w3.org/2000/svg"><path d="m240 60h-224c-2.209 0-4 1.791-4 4v20c0 2.209 1.791 4 4 4v104c0 2.209 1.791 4 4 4h216c2.209 0 4-1.791 4-4v-104c2.209 0 4-1.791 4-4v-20c0-2.209-1.791-4-4-4z" fill="#2b3e51"/><path d="m47.826 96h168.348c2.113 0 3.826 1.635 3.826 3.652v76.696c0 2.017-1.713 3.652-3.826 3.652h-168.348c-2.113 0-3.826-1.635-3.826-3.652v-76.696c0-2.017 1.713-3.652 3.826-3.652z" fill="#1b80bb"/><g fill="#223140"><path d="m216.174 96c2.113 0 3.826 1.635 3.826 3.652v76.696c0 2.017-1.713 3.652-3.826 3.652h-168.348c-2.113 0-3.826-1.635-3.826-3.652v-76.696c0-2.017 1.713-3.652 3.826-3.652zm0-2h-168.348c-3.212 0-5.826 2.536-5.826 5.652v76.696c0 3.117 2.614 5.652 5.826 5.652h168.348c3.212 0 5.826-2.536 5.826-5.652v-76.696c0-3.116-2.614-5.652-5.826-5.652z"/><path d="m102 184h52l-26 8z"/><path d="m50 80c48.286-16 107.714-16 156 0-48.286-9.6-107.714-9.6-156 0z"/></g></svg>

<svg xmlns="http://www.w3.org/2000/svg" viewBox="0 0 256 256"><path fill="#2b3e51" d="M240 60H16a4 4 0 0 0-4 4v20a4 4 0 0 0 4 4v104a4 4 0 0 0 4 4h216a4 4 0 0 0 4-4V88a4 4 0 0 0 4-4V64a4 4 0 0 0-4-4"/><path fill="#1b80bb" d="M47.826 96h168.348c2.113 0 3.826 1.635 3.826 3.652v76.696c0 2.017-1.713 3.652-3.826 3.652H47.826c-2.113 0-3.826-1.635-3.826-3.652V99.652C44 97.635 45.713 96 47.826 96"/><path fill="#223140" d="M216.174 96c2.113 0 3.826 1.635 3.826 3.652v76.696c0 2.017-1.713 3.652-3.826 3.652H47.826c-2.113 0-3.826-1.635-3.826-3.652V99.652C44 97.635 45.713 96 47.826 96zm0-2H47.826C44.614 94 42 96.536 42 99.652v76.696c0 3.117 2.614 5.652 5.826 5.652h168.348c3.212 0 5.826-2.536 5.826-5.652V99.652c0-3.116-2.614-5.652-5.826-5.652M102 184h52l-26 8zM50 80c48.286-16 107.714-16 156 0-48.286-9.6-107.714-9.6-156 0"/></svg>
